src/icons/hand.svg

<svg width="512px" height="512px" viewBox="0 0 512 512" version="1.1" xmlns="http://www.w3.org/2000/svg" xmlns:xlink="http://www.w3.org/1999/xlink">
    <path d="M403.846217,98.6153846 C408.615448,93.0512821 414.576859,90.2693579 421.730706,90.2693579 C428.884552,90.2693579 434.845963,92.8526277 439.615194,98.0191672 C444.384679,103.185961 446.769294,108.948718 446.769294,115.307692 L446.769294,393.115385 C446.769294,425.705281 438.224359,452.333232 421.134488,473 C404.044617,493.666771 381.589807,504 353.76904,504 L284.615321,504 C275.87168,504 267.525628,502.807704 259.576859,500.423077 C251.628091,498.038449 245.666629,496.05129 241.692244,494.461538 L236.923013,490.884615 C224.999886,483.730734 211.685897,473.198782 196.980693,459.288474 C182.275514,445.378142 169.756398,432.262884 159.423013,419.942295 C149.089629,407.621731 137.56409,393.711627 124.84609,378.211551 C112.128091,362.711449 104.576859,353.37182 102.192244,350.192308 C77.5510964,323.166539 65.2307056,305.282102 65.2307056,296.538462 C65.2307056,293.358949 66.820434,290.179513 69.9999364,287 C88.2820793,269.512744 114.512579,275.871642 148.692244,306.076923 L182.076859,334.692308 L182.076859,73.5767959 C182.076859,67.2178215 184.461449,61.6539733 189.230706,56.8847426 C193.999962,52.1152574 199.961449,49.7306421 207.115321,49.7306421 C214.269193,49.7306421 220.23068,52.1152574 224.999936,56.8847426 C229.769193,61.6539733 232.153783,67.2178215 232.153783,73.5767959 L232.153783,225 C232.153783,232.153846 235.73068,235.730642 242.884552,235.730642 C250.038423,235.730642 253.615321,232.153846 253.615321,225 L253.615321,33.0385887 C253.615321,26.67936 255.999911,20.9166031 260.769167,15.7500636 C265.538423,10.5832697 271.499911,8 278.653783,8 C285.807654,8 291.769142,10.5832697 296.538398,15.7500636 C301.307654,20.9166031 303.692244,26.67936 303.692244,33.0385887 L303.692244,204.730896 C303.692244,211.089871 307.269142,214.269358 314.423013,214.269358 C321.576859,214.269358 325.153655,211.089871 325.153655,204.730896 L325.153655,53.3076923 C325.153655,46.9487179 327.538271,41.185961 332.307756,36.0191672 C337.076987,30.8526277 343.038398,28.2693579 350.192244,28.2693579 C357.34609,28.2693579 363.307502,30.8526277 368.076732,36.0191672 C372.846217,41.185961 375.230833,46.9487179 375.230833,53.3076923 L375.230833,245.269104 C375.230833,252.423102 378.807629,256 385.961475,256 C393.115321,256 396.692117,252.423102 396.692117,245.269104 L396.692117,115.307692 C396.692117,108.948718 399.076732,103.384615 403.846217,98.6153846 Z"></path>
</svg>

<svg xmlns="http://www.w3.org/2000/svg" width="512" height="512" viewBox="0 0 512 512">
    <path d="M403.846 98.615c4.77-5.564 10.73-8.346 17.885-8.346 7.154 0 13.115 2.584 17.884 7.75 4.77 5.167 7.154 10.93 7.154 17.289v277.807c0 32.59-8.545 59.218-25.635 79.885-17.09 20.667-39.544 31-67.365 31h-69.154c-8.743 0-17.09-1.192-25.038-3.577-7.949-2.385-13.91-4.372-17.885-5.961l-4.769-3.577c-11.923-7.154-25.237-17.686-39.942-31.597-14.705-13.91-27.225-27.025-37.558-39.346-10.333-12.32-21.859-26.23-34.577-41.73-12.718-15.5-20.27-24.84-22.654-28.02-24.64-27.025-36.961-44.91-36.961-53.654 0-3.18 1.59-6.358 4.769-9.538 18.282-17.487 44.513-11.128 78.692 19.077l33.385 28.615V73.577c0-6.36 2.384-11.923 7.154-16.692 4.769-4.77 10.73-7.154 17.884-7.154s13.116 2.384 17.885 7.154c4.77 4.769 7.154 10.333 7.154 16.692V225c0 7.154 3.577 10.73 10.73 10.73 7.154 0 10.731-3.576 10.731-10.73V33.039c0-6.36 2.385-12.122 7.154-17.289C265.54 10.583 271.5 8 278.654 8c7.154 0 13.115 2.583 17.884 7.75 4.77 5.167 7.154 10.93 7.154 17.289V204.73c0 6.359 3.577 9.538 10.731 9.538s10.73-3.18 10.73-9.538V53.308c0-6.36 2.385-12.122 7.155-17.289 4.769-5.166 10.73-7.75 17.884-7.75s13.116 2.584 17.885 7.75c4.77 5.167 7.154 10.93 7.154 17.289v191.961c0 7.154 3.577 10.731 10.73 10.731 7.154 0 10.731-3.577 10.731-10.73V115.307c0-6.36 2.385-11.923 7.154-16.693z"/>
</svg>
